Misc/unknown.svg

<?xml version="1.0" encoding="iso-8859-1"?>
<!-- Generator: Adobe Illustrator 18.0.0, SVG Export Plug-In . SVG Version: 6.00 Build 0)  -->
<!DOCTYPE svg PUBLIC "-//W3C//DTD SVG 1.1//EN" "http://www.w3.org/Graphics/SVG/1.1/DTD/svg11.dtd">
<svg version="1.1" id="Capa_1" xmlns="http://www.w3.org/2000/svg" xmlns:xlink="http://www.w3.org/1999/xlink" x="0px" y="0px"
	 viewBox="0 0 58 58" style="enable-background:new 0 0 58 58;" xml:space="preserve">
<g>
	<path d="M6.5,41v15c0,1.009,1.22,2,2.463,2h40.074c1.243,0,2.463-0.991,2.463-2V41H6.5z M19.5,52c-2.206,0-4-1.794-4-4s1.794-4,4-4
		s4,1.794,4,4S21.706,52,19.5,52z M29.5,52c-2.206,0-4-1.794-4-4s1.794-4,4-4s4,1.794,4,4S31.706,52,29.5,52z M39.5,52
		c-2.206,0-4-1.794-4-4s1.794-4,4-4s4,1.794,4,4S41.706,52,39.5,52z"/>
	<path d="M51.5,39V13.978c0-0.766-0.092-1.333-0.55-1.792L39.313,0.55C38.964,0.201,38.48,0,37.985,0H8.963
		C7.777,0,6.5,0.916,6.5,2.926V39H51.5z M37.5,3.391c0-0.458,0.553-0.687,0.877-0.363l10.095,10.095
		C48.796,13.447,48.567,14,48.109,14H37.5V3.391z"/>
</g>
</svg>

<?xml version="1.0" standalone="no"?><!-- Generator: Gravit.io --><svg xmlns="http://www.w3.org/2000/svg" xmlns:xlink="http://www.w3.org/1999/xlink" style="isolation:isolate" viewBox="0 0 58 58" width="58" height="58"><defs><clipPath id="_clipPath_lWN7mZbNI1A4BviXrTM1wJfnjSU3Koox"><rect width="58" height="58"/></clipPath></defs><g clip-path="url(#_clipPath_lWN7mZbNI1A4BviXrTM1wJfnjSU3Koox)"><g id="Group"><path d=" M 6.5 41 L 6.5 56 C 6.5 57.009 7.72 58 8.963 58 L 49.037 58 C 50.28 58 51.5 57.009 51.5 56 L 51.5 41 L 6.5 41 L 6.5 41 Z  M 19.5 52 C 17.294 52 15.5 50.206 15.5 48 C 15.5 45.794 17.294 44 19.5 44 C 21.706 44 23.5 45.794 23.5 48 C 23.5 50.206 21.706 52 19.5 52 Z  M 29.5 52 C 27.294 52 25.5 50.206 25.5 48 C 25.5 45.794 27.294 44 29.5 44 C 31.706 44 33.5 45.794 33.5 48 C 33.5 50.206 31.706 52 29.5 52 Z  M 39.5 52 C 37.294 52 35.5 50.206 35.5 48 C 35.5 45.794 37.294 44 39.5 44 C 41.706 44 43.5 45.794 43.5 48 C 43.5 50.206 41.706 52 39.5 52 Z " fill="rgb(255,255,255)"/><path d=" M 51.5 39 L 51.5 13.978 C 51.5 13.212 51.408 12.645 50.95 12.186 L 39.313 0.55 C 38.964 0.201 38.48 0 37.985 0 L 8.963 0 C 7.777 0 6.5 0.916 6.5 2.926 L 6.5 39 L 51.5 39 L 51.5 39 Z  M 37.5 3.391 C 37.5 2.933 38.053 2.704 38.377 3.028 L 48.472 13.123 C 48.796 13.447 48.567 14 48.109 14 L 37.5 14 L 37.5 3.391 L 37.5 3.391 Z " fill="rgb(255,255,255)"/></g></g></svg>
